client/assets/eye-slash.svg

<svg width="70" height="70" viewBox="0 0 70 70" fill="none" xmlns="http://www.w3.org/2000/svg">
<path d="M0.769072 0.7677C0.324505 1.21217 0.0542037 1.80141 0.00731554 2.4283C-0.0395726 3.05519 0.140066 3.67809 0.513569 4.18375L0.769072 4.47775L14.8882 18.6004C8.00375 23.4257 3.0892 30.5708 1.04557 38.7257C0.888 39.397 1.00091 40.1034 1.3599 40.6921C1.71888 41.2809 2.29512 41.7048 2.96407 41.8721C3.63302 42.0395 4.34096 41.9369 4.93489 41.5865C5.52882 41.2361 5.96103 40.6662 6.13813 39.9997C7.9543 32.7616 12.4274 26.4719 18.6683 22.3805L25.0033 28.7156C22.4728 31.3598 21.0783 34.8899 21.1187 38.5497C21.1591 42.2095 22.631 45.708 25.2193 48.2958C27.8075 50.8836 31.3063 52.355 34.9661 52.3947C38.6259 52.4344 42.1557 51.0393 44.7995 48.5083L65.5162 69.2286C65.9846 69.6983 66.6135 69.9732 67.2763 69.9981C67.9392 70.0231 68.5869 69.7961 69.0892 69.363C69.5916 68.9298 69.9113 68.3225 69.9841 67.6632C70.057 67.0039 69.8775 66.3414 69.4818 65.809L69.2263 65.515L47.8306 44.1158L47.8341 44.1088L23.5088 19.7974L23.5158 19.7904L19.5503 15.8354L4.47911 0.7677C3.98692 0.276117 3.31973 0 2.62409 0C1.92846 0 1.26127 0.276117 0.769072 0.7677V0.7677ZM34.9994 12.2479C31.4994 12.2479 28.1044 12.7659 24.8878 13.7354L29.2174 18.0614C36.7059 16.5787 44.4778 18.0302 50.9263 22.116C57.3748 26.2017 62.0067 32.6093 63.8642 40.0137C64.0456 40.675 64.4784 41.239 65.0703 41.5853C65.6621 41.9315 66.3659 42.0324 67.0312 41.8665C67.6965 41.7005 68.2704 41.2808 68.6303 40.6971C68.9901 40.1134 69.1073 39.4121 68.9568 38.7432C67.0588 31.1742 62.6866 24.4562 56.5344 19.656C50.3822 14.8557 42.8027 12.2483 34.9994 12.2479V12.2479ZM35.6819 24.533L48.9856 37.8332C48.8135 34.3608 47.3565 31.0764 44.8978 28.6183C42.4391 26.1603 39.1544 24.7042 35.6819 24.533V24.533Z" fill="black"/>
</svg>

<svg xmlns="http://www.w3.org/2000/svg" width="70" height="70" fill="none"><path d="M.769.768C.325 1.212.054 1.801.007 2.428s.133 1.25.506 1.755l.256.294L14.888 18.6A34.95 34.95 0 0 0 1.046 38.726c-.158.671-.045 1.378.314 1.966s.935 1.013 1.604 1.18 1.377.065 1.971-.286 1.026-.92 1.203-1.587c1.816-7.238 6.289-13.528 12.53-17.619l6.335 6.335a14 14 0 0 0 .216 19.58 14 14 0 0 0 19.58.212l20.717 20.72c.468.47 1.097.745 1.76.769s1.311-.202 1.813-.635.822-1.04.895-1.7-.107-1.322-.502-1.854l-.256-.294-21.396-21.399.004-.007-24.325-24.311.007-.007-3.965-3.955L4.479.768C3.987.276 3.32 0 2.624 0S1.261.276.769.768h0zm34.23 11.48a34.99 34.99 0 0 0-10.112 1.488l4.33 4.326a29.76 29.76 0 0 1 34.647 21.952c.181.661.614 1.225 1.206 1.572s1.296.447 1.961.281 1.239-.586 1.599-1.169.477-1.285.326-1.954a35.01 35.01 0 0 0-33.957-26.495h0zm.682 12.285l13.304 13.3a14.01 14.01 0 0 0-13.304-13.3h0z" fill="#000"/></svg>
